static/assets/img/icons/theme/home/earth.svg

<svg height="24" viewBox="0 0 24 24" width="24" xmlns="http://www.w3.org/2000/svg"><g fill="none" fill-rule="evenodd"><path d="m0 0h24v24h-24z" opacity="0"/><g fill="#000"><circle cx="12" cy="12" opacity=".3" r="9"/><path d="m11.7357634 20.9961946c-4.84836288-.1398032-8.7357634-4.1140234-8.7357634-8.9961946 0-.0831633.00112797-.1660631.00336944-.248685.65896065.0630191 1.85299874.2060704 1.90925898.6690888.07786538.6405153 0 1.4411904.54541814 1.6813682.54541813.2401778.70126905-.9608348 1.16870164-.6405153.46743259.3203194 1.71411977.6286608 1.71411977 1.1949618 0 .5661775-.23371629 1.4472411 0 1.6074008.2337163.1601597 1.16810083 1.2810307 1.16834116 1.4411904.00036049.1601597.32936574.9745416.23119288 1.2858466-.08135009.2580831-.4918256 1.0594991-.8898042 1.4239026.90255577.3475032 1.87298679.5512153 2.88516559.5814955zm-3.45303352-17.19507361c1.13311162-.51455678 2.39172552-.80112099 3.71727012-.80112099 3.5114513 0 6.5532143 2.01097452 8.0364482 4.94408274.0332088.78003903.027385 1.44727047.199678 1.68865306.877067 1.2273148-2.1366115 2.07158-1.6787919 3.9278026.2016328.8189508-2.0045529.5591389-2.5433621 1.3258556-.5391696.7663463-1.8565124.251415-2.1619658.1040977s-1.4753567.343658-1.3730983-.4909753c.1016576-.8348804.8133808-.8839038 1.5766538-1.2275618.7629124-.3432876 1.8633617-1.4847805 1.3226299-1.6339501-2.5458854-.7017638-3.4144208-3.15948055-3.4144208-3.15948055-.1527267-.02951286-.1143948-1.73743029-.7754094-1.78645373-.6616154-.04927041-1.0178976.19634074-1.98400504 0-.96670828-.19634073-.76291247-.83463335-.91563916-2.20951244-.03417746-.30840092-.03252604-.52538696-.00598752-.68143679zm12.71644722 8.07591471c.000548.0409228.0008229.0819114.0008229.1229643 0 4.9406923-3.9811532 8.9515364-8.9104912 8.9995641 4.8807242-.0492315 8.8442023-4.1111261 8.9096683-9.1225284z" opacity=".3"/></g></g></svg>

<svg width="24px" height="24px" viewBox="0 0 24 24" version="1.1" xmlns="http://www.w3.org/2000/svg" xmlns:xlink="http://www.w3.org/1999/xlink">
    <title>Icon For Earth</title>
    <g stroke="none" stroke-width="1" fill="none" fill-rule="evenodd">
        <rect opacity="0" x="0" y="0" width="24" height="24"></rect>
        <circle fill="#000000" opacity="0.3" cx="12" cy="12" r="9"></circle>
        <path d="M11.7357634,20.9961946 C6.88740052,20.8563914 3,16.8821712 3,12 C3,11.9168367 3.00112797,11.8339369 3.00336944,11.751315 C3.66233009,11.8143341 4.85636818,11.9573854 4.91262842,12.4204038 C4.9904938,13.0609191 4.91262842,13.8615942 5.45804656,14.101772 C6.00346469,14.3419498 6.15931561,13.1409372 6.6267482,13.4612567 C7.09418079,13.7815761 8.34086797,14.0899175 8.34086797,14.6562185 C8.34086797,15.222396 8.10715168,16.1034596 8.34086797,16.2636193 C8.57458427,16.423779 9.5089688,17.54465 9.50920913,17.7048097 C9.50956962,17.8649694 9.83857487,18.6793513 9.74040201,18.9906563 C9.65905192,19.2487394 9.24857641,20.0501554 8.85059781,20.4145589 C9.75315358,20.7620621 10.7235846,20.9657742 11.7357634,20.9960544 L11.7357634,20.9961946 Z M8.28272988,3.80112099 C9.4158415,3.28656421 10.6744554,3 12,3 C15.5114513,3 18.5532143,5.01097452 20.0364482,7.94408274 C20.069657,8.72412177 20.0638332,9.39135321 20.2361262,9.6327358 C21.1131932,10.8600506 18.0995147,11.7043158 18.5573343,13.5605384 C18.7589671,14.3794892 16.5527814,14.1196773 16.0139722,14.886394 C15.4748026,15.6527403 14.1574598,15.137809 13.8520064,14.9904917 C13.546553,14.8431744 12.3766497,15.3341497 12.4789081,14.4995164 C12.5805657,13.664636 13.2922889,13.6156126 14.0555619,13.2719546 C14.8184743,12.928667 15.9189236,11.7871741 15.3781918,11.6380045 C12.8323064,10.9362407 11.963771,8.47852395 11.963771,8.47852395 C11.8110443,8.44901109 11.8493762,6.74109366 11.1883616,6.69207022 C10.5267462,6.64279981 10.170464,6.88841096 9.20435656,6.69207022 C8.23764828,6.49572949 8.44144409,5.85743687 8.2887174,4.48255778 C8.25453994,4.17415686 8.25619136,3.95717082 8.28272988,3.80112099 Z M20.9991771,11.8770357 C20.9997251,11.9179585 21,11.9589471 21,12 C21,16.9406923 17.0188468,20.9515364 12.0895088,20.9995641 C16.970233,20.9503326 20.9337111,16.888438 20.9991771,11.8770357 Z" fill="#000000" opacity="0.3"></path>
    </g>
</svg>
